my-app/src/assets/icons/bucket.svg

<svg viewBox="0 0 492 492" xmlns="http://www.w3.org/2000/svg" xml:space="preserve" style="fill-rule:evenodd;clip-rule:evenodd;stroke-linecap:round;stroke-linejoin:round;stroke-miterlimit:1.5"><g transform="scale(.48)"><path d="M793 519.513c-4.667-80-158.132-168.086-255-165.513-81.666 2.169-229.567 13.438-256.152 162.651-6.126 34.382 145.308 124.804 285.219 95.005C683.796 586.795 781.503 582.49 793 519.513" style="fill:#fff;stroke:#000;stroke-width:15.24px" transform="matrix(1 0 0 .52621 0 167.626)"/><path d="M327.381 422.074c0-10.338-40.367 11.811-34.756 23.033 3.372 6.745 46.288 12.66 53.033 16.033 15.403 7.702.723-42.299-18.277-39.066Z" style="fill:#fff"/><path d="M330.91 416.482c-.835-.864-1.906-1.522-3.175-1.998-2.305-.864-6.119-.835-10.609.598-9.016 2.876-21.852 11.075-27.274 18.693-3.501 4.918-4.177 9.842-2.191 13.814.641 1.283 1.824 2.684 3.702 3.936 2.393 1.595 6.418 3.221 11.333 4.698 13.884 4.17 35.863 7.572 40.48 9.881 4.02 2.01 7.145 1.595 9.378.408 2.904-1.545 5.2-5.383 5.089-11.132-.156-8.031-4.675-20.962-11.58-29.441-4.333-5.321-9.603-8.824-15.153-9.457Zm-8.086 8.758a5.551 5.551 0 0 0 5.488 2.305c2.844-.484 5.35 1.345 7.661 3.73 4.888 5.041 8.519 13.144 9.956 19.699.315 1.435.416 3.163.439 4.501-7.199-2.418-27.301-5.925-40.479-9.883-3.135-.942-6.789-2.624-8.131-3.263.039-.145.087-.297.137-.412.377-.87.987-1.752 1.728-2.653 3.687-4.484 10.34-8.965 16.273-11.76 2.258-1.063 5.255-1.865 6.928-2.264Z"/><path d="M278 451c28.745 66.812 78.624 346.794 116 433 24.632 56.813 113.833 51.5 168 54 53.866 2.486 152.649 4.606 169-25 43.355-78.501 52.717-387.869 64-460 4.667-29.833-29.187 26.289-270 32-86.143 2.043-253.167-48.333-247-34Z" style="fill:#fff"/><clipPath id="a"><path d="M278 451c28.745 66.812 78.624 346.794 116 433 24.632 56.813 113.833 51.5 168 54 53.866 2.486 152.649 4.606 169-25 43.355-78.501 52.717-387.869 64-460 4.667-29.833-29.187 26.289-270 32-86.143 2.043-253.167-48.333-247-34Z"/></clipPath><g clip-path="url(#a)"><path d="M397.326 879.558A5.523 5.523 0 0 0 394 878.45c-3.631 0-4.863 2.323-5.229 3.017-.792 1.502-.986 3.187-.081 5.048.209.43 1.22 2.255 4.168 3.264 9.037 3.094 76.933 18.597 80.33 19.118 58.281 8.939 149.616 2.888 150.618 2.852 31.797-1.144 107.369-4.329 112.501-4.329a5.553 5.553 0 0 0 5.55-5.55 5.552 5.552 0 0 0-5.55-5.55c-5.15 0-80.99 3.189-112.9 4.336-.988.036-91.062 6.085-148.536-2.731-3.224-.494-65.934-14.792-77.545-18.367Zm-3.042 9.985-.284.007c.097 0 .192-.002.284-.007Zm.261-.02-.258.02.16-.009.098-.011Zm1.171-.245a5.433 5.433 0 0 1-1.101.237 4.898 4.898 0 0 0 1.101-.237Z"/></g><path d="M278 451c28.745 66.812 78.624 346.794 116 433 24.632 56.813 113.833 51.5 168 54 53.866 2.486 152.649 4.606 169-25 43.355-78.501 52.717-387.869 64-460 4.667-29.833-29.187 26.289-270 32-86.143 2.043-253.167-48.333-247-34Z" style="fill:none;stroke:#000;stroke-width:12.18px"/><path d="M795 453c-4.667-80-160.132-101.573-257-99-132.567 3.521-274.295 33.227-260 97" style="fill:none;stroke:#000;stroke-width:12.18px"/><path d="M278 451c28.745 66.812 78.624 346.794 116 433 24.632 56.813 113.833 51.5 168 54 53.866 2.486 152.649 4.606 169-25 43.355-78.501 52.717-387.869 64-460 4.667-29.833-29.187 26.289-270 32-86.143 2.043-253.167-48.333-247-34Z" style="fill:#fff"/><clipPath id="b"><path d="M278 451c28.745 66.812 78.624 346.794 116 433 24.632 56.813 113.833 51.5 168 54 53.866 2.486 152.649 4.606 169-25 43.355-78.501 52.717-387.869 64-460 4.667-29.833-29.187 26.289-270 32-86.143 2.043-253.167-48.333-247-34Z"/></clipPath><g clip-path="url(#b)"><path d="M397.326 879.558A5.523 5.523 0 0 0 394 878.45c-3.631 0-4.863 2.323-5.229 3.017-.792 1.502-.986 3.187-.081 5.048.209.43 1.22 2.255 4.168 3.264 9.037 3.094 76.933 18.597 80.33 19.118 58.281 8.939 149.616 2.888 150.618 2.852 31.797-1.144 107.369-4.329 112.501-4.329a5.553 5.553 0 0 0 5.55-5.55 5.552 5.552 0 0 0-5.55-5.55c-5.15 0-80.99 3.189-112.9 4.336-.988.036-91.062 6.085-148.536-2.731-3.224-.494-65.934-14.792-77.545-18.367Zm-3.042 9.985-.284.007c.097 0 .192-.002.284-.007Zm.261-.02-.258.02.16-.009.098-.011Zm1.171-.245a5.433 5.433 0 0 1-1.101.237 4.898 4.898 0 0 0 1.101-.237Z"/></g><path d="M278 451c28.745 66.812 78.624 346.794 116 433 24.632 56.813 113.833 51.5 168 54 53.866 2.486 152.649 4.606 169-25 43.355-78.501 52.717-387.869 64-460 4.667-29.833-29.187 26.289-270 32-86.143 2.043-253.167-48.333-247-34Z" style="fill:none;stroke:#000;stroke-width:12.18px"/><path d="M325.196 411.675a6.66 6.66 0 0 0-.345.332c-.727.751-1.89 2.871-2.464 5.099-.463 1.798-.563 3.595-.433 4.488.212 1.462.838 2.461 1.406 3.11 1.547 1.768 3.552 2.549 6.191 1.625.681-.238 2.841-1.309 4.968-5.562l.009-.02a5.49 5.49 0 0 0 .496-1.527c.729-2.9 1.582-8.968 2.33-17.355 3.297-36.932 8.318-124.103 23.326-164.377 18.272-49.029 44.98-165.815 187.639-159.681C658.71 82.553 690.097 158.15 707.797 202.31c11.146 27.806 9.508 81.158 11.491 113.615.494 8.093 1.235 14.98 2.36 20.057-7.645.017-15.717 2.734-22.712 7.16-11.672 7.384-19.849 19.37-19.109 29.55.005.115.016.23.03.345.3 2.681 2.133 5.503 7.088 6.178 1.7.231 4.293.156 7.469.148 10.735 1.831 22.036 4.24 26.627 5.175 10.309 5.144 15.601 6.927 18.63 7.773.881.246 1.824.485 2.372.621l.437.277.246.16c1.661 1.325 3.456 1.418 5.263.749a3.93 3.93 0 0 0 .458-.208l.227-.112a5.533 5.533 0 0 0 2.755-3.545c.137-.424.244-.89.312-1.404.367-2.762.803-11.753-1.282-21.829-.388-3.323-.908-6.423-1.605-8.783-2.68-9.067-7.277-14.872-12.739-18.294a37.433 37.433 0 0 0-2.002-1.671c-.096-.2-1.001-2.117-1.395-3.649-1.187-4.621-1.86-11.335-2.351-19.375-2.043-33.455-.778-88.406-12.267-117.068-18.753-46.786-52.35-126.434-169.304-131.463-150.165-6.456-179.284 115.286-198.517 166.895-13.382 35.911-19.173 108.382-22.635 151.155-.948 11.724-1.722 21.168-2.448 26.908Zm404.263-62.767a13.487 13.487 0 0 0-1.36-.656c-7.139-2.968-15.959-.329-23.229 4.27-5.072 3.209-9.434 7.473-11.952 11.996a18.597 18.597 0 0 0-1.408 3.128l2.713.441 2.419.416c7.55.134 18.1.702 28.237 5.554.932.175 2.123.465 3.477.88 3.38 1.039 8.216 2.813 11.976 4.456-.12-3.102-.327-6.59-.681-9.857a55.625 55.625 0 0 0-1.277-5.073c-1.686-5.557-4.405-11.201-8.915-15.555Z"/></g></svg>

<?xml version="1.0" encoding="UTF-8" standalone="no"?>
<!DOCTYPE svg PUBLIC "-//W3C//DTD SVG 1.1//EN" "http://www.w3.org/Graphics/SVG/1.1/DTD/svg11.dtd">
<svg width="100%" height="100%" viewBox="0 0 492 492" version="1.1" xmlns="http://www.w3.org/2000/svg" xmlns:xlink="http://www.w3.org/1999/xlink" xml:space="preserve" xmlns:serif="http://www.serif.com/" style="fill-rule:evenodd;clip-rule:evenodd;stroke-linecap:round;stroke-linejoin:round;stroke-miterlimit:1.5;">
    <g transform="matrix(0.48,0,0,0.48,0,0)">
        <g transform="matrix(1,0,0,0.526213,0,167.626)">
            <path d="M793,519.513C788.333,439.513 634.868,351.427 538,354C456.334,356.169 308.433,367.438 281.848,516.651C275.722,551.033 427.156,641.455 567.067,611.656C683.796,586.795 781.503,582.49 793,519.513" style="fill:white;stroke:black;stroke-width:15.24px;"/>
        </g>
        <path d="M327.381,422.074C327.381,411.736 287.014,433.885 292.625,445.107C295.997,451.852 338.913,457.767 345.658,461.14C361.061,468.842 346.381,418.841 327.381,422.074Z" style="fill:white;"/>
        <path d="M330.91,416.482C330.075,415.618 329.004,414.96 327.735,414.484C325.43,413.62 321.616,413.649 317.126,415.082C308.11,417.958 295.274,426.157 289.852,433.775C286.351,438.693 285.675,443.617 287.661,447.589C288.302,448.872 289.485,450.273 291.363,451.525C293.756,453.12 297.781,454.746 302.696,456.223C316.58,460.393 338.559,463.795 343.176,466.104C347.196,468.114 350.321,467.699 352.554,466.512C355.458,464.967 357.754,461.129 357.643,455.38C357.487,447.349 352.968,434.418 346.063,425.939C341.73,420.618 336.46,417.115 330.91,416.482ZM322.824,425.24C323.098,425.636 323.425,425.998 323.801,426.315C325.05,427.369 326.7,427.819 328.312,427.545C331.156,427.061 333.662,428.89 335.973,431.275C340.861,436.316 344.492,444.419 345.929,450.974C346.244,452.409 346.345,454.137 346.368,455.475C339.169,453.057 319.067,449.55 305.889,445.592C302.754,444.65 299.1,442.968 297.758,442.329C297.797,442.184 297.845,442.032 297.895,441.917C298.272,441.047 298.882,440.165 299.623,439.264C303.31,434.78 309.963,430.299 315.896,427.504C318.154,426.441 321.151,425.639 322.824,425.24Z"/>
        <path d="M278,451C306.745,517.812 356.624,797.794 394,884C418.632,940.813 507.833,935.5 562,938C615.866,940.486 714.649,942.606 731,913C774.355,834.499 783.717,525.131 795,453C799.667,423.167 765.813,479.289 525,485C438.857,487.043 271.833,436.667 278,451Z" style="fill:white;"/>
        <clipPath id="_clip1">
            <path d="M278,451C306.745,517.812 356.624,797.794 394,884C418.632,940.813 507.833,935.5 562,938C615.866,940.486 714.649,942.606 731,913C774.355,834.499 783.717,525.131 795,453C799.667,423.167 765.813,479.289 525,485C438.857,487.043 271.833,436.667 278,451Z"/>
        </clipPath>
        <g clip-path="url(#_clip1)">
            <path d="M397.326,879.558C396.398,878.862 395.247,878.45 394,878.45C390.369,878.45 389.137,880.773 388.771,881.467C387.979,882.969 387.785,884.654 388.69,886.515C388.899,886.945 389.91,888.77 392.858,889.779C401.895,892.873 469.791,908.376 473.188,908.897C531.469,917.836 622.804,911.785 623.806,911.749C655.603,910.605 731.175,907.42 736.307,907.42C739.37,907.42 741.857,904.933 741.857,901.87C741.857,898.806 739.37,896.32 736.307,896.32C731.157,896.32 655.317,899.509 623.407,900.656C622.419,900.692 532.345,906.741 474.871,897.925C471.647,897.431 408.937,883.133 397.326,879.558ZM394.284,889.543L394,889.55C394.097,889.55 394.192,889.548 394.284,889.543ZM394.545,889.523L394.287,889.543L394.447,889.534L394.545,889.523ZM395.716,889.278C395.363,889.393 394.995,889.474 394.615,889.515C395.028,889.473 395.393,889.389 395.716,889.278Z"/>
        </g>
        <path d="M278,451C306.745,517.812 356.624,797.794 394,884C418.632,940.813 507.833,935.5 562,938C615.866,940.486 714.649,942.606 731,913C774.355,834.499 783.717,525.131 795,453C799.667,423.167 765.813,479.289 525,485C438.857,487.043 271.833,436.667 278,451Z" style="fill:none;stroke:black;stroke-width:12.18px;"/>
        <path d="M795,453C790.333,373 634.868,351.427 538,354C405.433,357.521 263.705,387.227 278,451" style="fill:none;stroke:black;stroke-width:12.18px;"/>
        <path d="M278,451C306.745,517.812 356.624,797.794 394,884C418.632,940.813 507.833,935.5 562,938C615.866,940.486 714.649,942.606 731,913C774.355,834.499 783.717,525.131 795,453C799.667,423.167 765.813,479.289 525,485C438.857,487.043 271.833,436.667 278,451Z" style="fill:white;"/>
        <clipPath id="_clip2">
            <path d="M278,451C306.745,517.812 356.624,797.794 394,884C418.632,940.813 507.833,935.5 562,938C615.866,940.486 714.649,942.606 731,913C774.355,834.499 783.717,525.131 795,453C799.667,423.167 765.813,479.289 525,485C438.857,487.043 271.833,436.667 278,451Z"/>
        </clipPath>
        <g clip-path="url(#_clip2)">
            <path d="M397.326,879.558C396.398,878.862 395.247,878.45 394,878.45C390.369,878.45 389.137,880.773 388.771,881.467C387.979,882.969 387.785,884.654 388.69,886.515C388.899,886.945 389.91,888.77 392.858,889.779C401.895,892.873 469.791,908.376 473.188,908.897C531.469,917.836 622.804,911.785 623.806,911.749C655.603,910.605 731.175,907.42 736.307,907.42C739.37,907.42 741.857,904.933 741.857,901.87C741.857,898.806 739.37,896.32 736.307,896.32C731.157,896.32 655.317,899.509 623.407,900.656C622.419,900.692 532.345,906.741 474.871,897.925C471.647,897.431 408.937,883.133 397.326,879.558ZM394.284,889.543L394,889.55C394.097,889.55 394.192,889.548 394.284,889.543ZM394.545,889.523L394.287,889.543L394.447,889.534L394.545,889.523ZM395.716,889.278C395.363,889.393 394.995,889.474 394.615,889.515C395.028,889.473 395.393,889.389 395.716,889.278Z"/>
        </g>
        <path d="M278,451C306.745,517.812 356.624,797.794 394,884C418.632,940.813 507.833,935.5 562,938C615.866,940.486 714.649,942.606 731,913C774.355,834.499 783.717,525.131 795,453C799.667,423.167 765.813,479.289 525,485C438.857,487.043 271.833,436.667 278,451Z" style="fill:none;stroke:black;stroke-width:12.18px;"/>
        <path d="M325.196,411.675C325.08,411.779 324.965,411.889 324.851,412.007C324.124,412.758 322.961,414.878 322.387,417.106C321.924,418.904 321.824,420.701 321.954,421.594C322.166,423.056 322.792,424.055 323.36,424.704C324.907,426.472 326.912,427.253 329.551,426.329C330.232,426.091 332.392,425.02 334.519,420.767L334.528,420.747C334.763,420.273 334.933,419.76 335.024,419.22C335.753,416.32 336.606,410.252 337.354,401.865C340.651,364.933 345.672,277.762 360.68,237.488C378.952,188.459 405.66,71.673 548.319,77.807C658.71,82.553 690.097,158.15 707.797,202.31C718.943,230.116 717.305,283.468 719.288,315.925C719.782,324.018 720.523,330.905 721.648,335.982C714.003,335.999 705.931,338.716 698.936,343.142C687.264,350.526 679.087,362.512 679.827,372.692C679.832,372.807 679.843,372.922 679.857,373.037C680.157,375.718 681.99,378.54 686.945,379.215C688.645,379.446 691.238,379.371 694.414,379.363C705.149,381.194 716.45,383.603 721.041,384.538C731.35,389.682 736.642,391.465 739.671,392.311C740.552,392.557 741.495,392.796 742.043,392.932L742.48,393.209L742.726,393.369C744.387,394.694 746.182,394.787 747.989,394.118C748.06,394.092 748.224,394.027 748.447,393.91L748.674,393.798C750.069,393.049 751.058,391.752 751.429,390.253C751.566,389.829 751.673,389.363 751.741,388.849C752.108,386.087 752.544,377.096 750.459,367.02C750.071,363.697 749.551,360.597 748.854,358.237C746.174,349.17 741.577,343.365 736.115,339.943C735.472,339.367 734.805,338.81 734.113,338.272C734.017,338.072 733.112,336.155 732.718,334.623C731.531,330.002 730.858,323.288 730.367,315.248C728.324,281.793 729.589,226.842 718.1,198.18C699.347,151.394 665.75,71.746 548.796,66.717C398.631,60.261 369.512,182.003 350.279,233.612C336.897,269.523 331.106,341.994 327.644,384.767C326.696,396.491 325.922,405.935 325.196,411.675ZM729.459,348.908C729.017,348.663 728.563,348.445 728.099,348.252C720.96,345.284 712.14,347.923 704.87,352.522C699.798,355.731 695.436,359.995 692.918,364.518C692.34,365.556 691.859,366.602 691.51,367.646L694.223,368.087L696.642,368.503C704.192,368.637 714.742,369.205 724.879,374.057C725.811,374.232 727.002,374.522 728.356,374.937C731.736,375.976 736.572,377.75 740.332,379.393C740.212,376.291 740.005,372.803 739.651,369.536C739.313,367.872 738.892,366.17 738.374,364.463C736.688,358.906 733.969,353.262 729.459,348.908Z"/>
    </g>
</svg>
